assets/Open book/Flat/open_book_flat.svg

<svg width="32" height="32" viewBox="0 0 32 32" fill="none" xmlns="http://www.w3.org/2000/svg">
<path fill-rule="evenodd" clip-rule="evenodd" d="M16 8.05051C16.6353 7.40223 17.5207 7 18.5 7H26.5C27.2428 7 27.8892 7.40449 28.234 8.00326C28.3036 8.12402 28.3296 8.26363 28.3296 8.40297V10.6972L29 25.5C29 26.8807 27.8807 28 26.5 28H5.5C4.11929 28 3 26.8807 3 25.5L3.67038 10.6972V8.40298C3.67038 8.26363 3.69643 8.12402 3.76597 8.00327C4.11082 7.40451 4.75724 7 5.5 7H13.5C14.4793 7 15.3647 7.40223 16 8.05051Z" fill="#B4ACBC"/>
<path d="M17.7324 30H28.4989C29.3295 30 30 29.3221 30 28.4948V27.4414C30 26.614 29.3295 25 28.4989 25H3.50107C2.67048 25 2 26.614 2 27.4414V28.5047C2 29.3321 2.67048 30 3.50107 30H14.2676C14.6134 30.5978 15.2597 31 16 31C16.7403 31 17.3866 30.5978 17.7324 30Z" fill="#0074BA"/>
<path fill-rule="evenodd" clip-rule="evenodd" d="M3.50107 10H14V11H18V10H28.4989C29.3295 10 30 10.6679 30 11.4953V27.4948C30 28.3221 29.3295 29 28.4989 29H17.7324C17.3866 29.5978 16.7403 30 16 30C15.2597 30 14.6134 29.5978 14.2676 29H3.50107C2.67048 29 2 28.3321 2 27.5047V11.4953C2 10.6679 2.67048 10 3.50107 10ZM17.5 27.5C17.5 28.3284 16.8284 29 16 29C15.1716 29 14.5 28.3284 14.5 27.5C14.5 26.6716 15.1716 26 16 26C16.8284 26 17.5 26.6716 17.5 27.5Z" fill="#00A6ED"/>
<path d="M13 8H5.80278C5.30125 8 4.8329 8.25065 4.5547 8.66795L3 11V25.5C3 26.3284 3.67157 27 4.5 27H27.5C28.3284 27 29 26.3284 29 25.5V11L27.4453 8.66795C27.1671 8.25065 26.6988 8 26.1972 8H19V11H13V8Z" fill="#B4ACBC"/>
<path d="M5.5 8H13.5C14.8807 8 16 9.11929 16 10.5V27L15.5528 26.1056C15.214 25.428 14.5215 25 13.7639 25H5.5C4.94772 25 4.5 24.5523 4.5 24V9C4.5 8.44772 4.94772 8 5.5 8Z" fill="#F3EEF8"/>
<path d="M18.5 8H26.5C27.0523 8 27.5 8.44772 27.5 9V24C27.5 24.5523 27.0523 25 26.5 25H18.2361C17.516 25 16.8546 25.3867 16.5 26.007V8.99976C16.9561 8.39267 17.6822 8 18.5 8Z" fill="#F3EEF8"/>
</svg>

<svg xmlns="http://www.w3.org/2000/svg" width="32" height="32" fill="none"><path fill="#B4ACBC" fill-rule="evenodd" d="M16 8.05A3.49 3.49 0 0 1 18.5 7h8c.743 0 1.39.404 1.734 1.003.07.121.096.26.096.4v2.294L29 25.5a2.5 2.5 0 0 1-2.5 2.5h-21A2.5 2.5 0 0 1 3 25.5l.67-14.803V8.403c0-.14.026-.279.096-.4A1.999 1.999 0 0 1 5.5 7h8c.98 0 1.865.402 2.5 1.05Z" clip-rule="evenodd"/><path fill="#0074BA" d="M17.732 30H28.5c.83 0 1.501-.678 1.501-1.505V27.44c0-.827-.67-2.441-1.501-2.441H3.5C2.671 25 2 26.614 2 27.441v1.064C2 29.332 2.67 30 3.501 30h10.767a2 2 0 0 0 3.464 0Z"/><path fill="#00A6ED" fill-rule="evenodd" d="M3.501 10H14v1h4v-1h10.499c.83 0 1.501.668 1.501 1.495v16c0 .827-.67 1.505-1.501 1.505H17.732a2 2 0 0 1-3.464 0H3.5C2.671 29 2 28.332 2 27.505v-16.01C2 10.668 2.67 10 3.501 10ZM17.5 27.5a1.5 1.5 0 1 1-3 0 1.5 1.5 0 0 1 3 0Z" clip-rule="evenodd"/><path fill="#B4ACBC" d="M13 8H5.803a1.5 1.5 0 0 0-1.248.668L3 11v14.5A1.5 1.5 0 0 0 4.5 27h23a1.5 1.5 0 0 0 1.5-1.5V11l-1.555-2.332A1.5 1.5 0 0 0 26.197 8H19v3h-6V8Z"/><path fill="#F3EEF8" d="M5.5 8h8a2.5 2.5 0 0 1 2.5 2.5V27l-.447-.894A2 2 0 0 0 13.763 25H5.5a1 1 0 0 1-1-1V9a1 1 0 0 1 1-1ZM18.5 8h8a1 1 0 0 1 1 1v15a1 1 0 0 1-1 1h-8.264a2 2 0 0 0-1.736 1.007V9c.456-.607 1.182-1 2-1Z"/></svg>
